X: 37164
T: Sir Bobby Robson's Rant
R: reel
M: 4/4
K: Dmajor
fe|:d2f2 Agfe|dAfA d2cd|e2g2 Bged|cdBc Agfe|
d2f2 Agfe|dAfA d2cd|eged cABc|dAfe d4:|
^deAc eAce|^deAc eAce|dfAd fAdf|dfAd fAdf|
^deAc eAce|^deAc eAce|dged cABc|dAfe d4:|

